X:10
T: Ennek a szép barna lánynak
M:4/4
L:1/4
K:D
d/d/c/d/ e/c/d/B/ | A F G<E | D2 D z |
f<f e/d/c/d/  | B<G B d |  A2 A z |
f<f e/d/c/d/ | B<G Bd | A2 F z |
d/d/c/d/ e/c/d/B/ | A F G<E | D2 D z |

